X: 115
T: Lama ye de liwu The priviledge of the Lama
%%abc-version 2.0
%%abcx-abcm2ps-target-version 5.9.1 (29 Sep 2008)
%%abc-creator hum2abc beta
%%abcx-conversion-date 2013/10/02 07:44:27
%%abc-edited-by Helmut Schaffrath
%%humdrum-veritas 3755445881
%%humdrum-veritas-data 2237820307
%%continueall 1
%%barnumbers 0
L: 1/8
M: 2/4
K: C
d d e e [I:setbarnb 1]| 
d e e/ d/ c | 
A A/ c/ d/ c/ A/ c/ | 
d> c d e | 
G G/ A/ E G | 
c c d e | 
A/ c/ A/ G/ G/ E/ c | 
A4 | 
d d e e | 
d e e/ d/ c | 
A A/ c/ d/ c/ A/ c/ | 
d> c d e | 
G G/ A/ E G | 
c c d e | 
A/ c/ A/ G/ G/ E/ c | 
A4 |]  



